X: 16018
T: Great Uncle Henry
R: barndance
M: 4/4
K: Gmajor
DGA|B2 BA c2 BG|AB G2-GGBd|g2 gf e2 dc|d4- d:|
GBd|g3 a f3 g|[M:5/4] e2 {f}ec dB BG Bc|
[M:4/4] A2 AB c2 cB|[M:3/4]BG- GG Bd|[M:4/4]g2 a2 f2 g2|
[M:5/4] e2-ec dB BG Bc|[M:4/4]A2 D2-DAcB|[M:3/4]BG- G||

